fs/skip_forward_30_28_regular.svg

<svg viewBox="0 0 28 28" fill="none" xmlns="http://www.w3.org/2000/svg" height="1em" width="1em">
  <path d="M25.25 2.5C25.6642 2.5 26 2.83579 26 3.25V9.75C26 10.1642 25.6642 10.5 25.25 10.5H18.7497C18.3355 10.5 17.9997 10.1642 17.9997 9.75C17.9997 9.33579 18.3355 9 18.7497 9H23.4104C21.7304 6.46873 18.3444 4.5 14.2499 4.5C10.0328 4.5 6.7085 6.49791 4.38282 10.1526C4.16044 10.5021 3.69688 10.6051 3.34743 10.3827C2.99798 10.1603 2.89497 9.69676 3.11735 9.3473C5.68874 5.30647 9.46713 3 14.2499 3C18.6835 3 22.4758 5.07273 24.5 7.93666V3.25C24.5 2.83579 24.8358 2.5 25.25 2.5ZM9.74989 18.25C11.8485 18.25 12.5623 17.1477 12.5623 16.375C12.5623 15.6023 11.8485 14.5 9.74989 14.5C8.8461 14.5 8.16555 14.7772 7.71267 15.0492C7.4852 15.1858 7.31579 15.3209 7.20677 15.4179C7.15242 15.4662 7.1136 15.5046 7.09063 15.5283C7.07915 15.5401 7.07169 15.5482 7.06827 15.552L7.06981 15.5501L7.06745 15.5528L7.06827 15.552L7.0666 15.5538C6.79698 15.8649 6.32642 15.9006 6.01288 15.6328C5.69825 15.3641 5.66073 14.8914 5.92877 14.5764L5.92965 14.5754L5.9306 14.5743L5.95785 14.5435C5.97189 14.5281 5.99058 14.508 6.01392 14.4839C6.06056 14.4358 6.12596 14.3717 6.20996 14.297C6.37765 14.1479 6.62154 13.9548 6.94042 13.7633C7.58026 13.379 8.52469 13 9.74989 13C12.4012 13 14.0623 14.5227 14.0623 16.375C14.0623 17.4307 13.5227 18.3793 12.5678 19C13.5227 19.6207 14.0623 20.5693 14.0623 21.625C14.0623 23.4773 12.4012 25 9.74989 25C8.52469 25 7.58026 24.621 6.94042 24.2367C6.62154 24.0452 6.37765 23.8521 6.20996 23.703C6.12596 23.6283 6.06056 23.5642 6.01392 23.5161C5.99058 23.492 5.97189 23.4719 5.95785 23.4565L5.94027 23.4368L5.93409 23.4297L5.93165 23.4269L5.9306 23.4257L5.92965 23.4246C5.71431 23.1724 5.90731 23.3984 5.92872 23.4235C5.66074 23.1085 5.69828 22.6359 6.01288 22.3672C6.32642 22.0994 6.79698 22.1351 7.0666 22.4462L7.06827 22.448L7.06745 22.4472L7.06981 22.4499L7.06827 22.448C7.07169 22.4518 7.07915 22.4599 7.09063 22.4717C7.1136 22.4954 7.15242 22.5338 7.20677 22.5821C7.31579 22.6791 7.4852 22.8142 7.71267 22.9508C8.16555 23.2228 8.8461 23.5 9.74989 23.5C11.8485 23.5 12.5623 22.3977 12.5623 21.625C12.5623 20.8523 11.8485 19.75 9.74989 19.75C9.33569 19.75 8.9999 19.4142 8.9999 19C8.9999 18.5858 9.33569 18.25 9.74989 18.25ZM16.8536 14.9135C17.5298 13.7389 18.6481 13 20.238 13C21.8278 13 22.9462 13.7389 23.6223 14.9135C24.2652 16.0304 24.4879 17.4978 24.4879 19C24.4879 20.5022 24.2652 21.9696 23.6223 23.0865C22.9462 24.2611 21.8278 25 20.238 25C18.6481 25 17.5298 24.2611 16.8536 23.0865C16.2108 21.9696 15.988 20.5022 15.988 19C15.988 17.4978 16.2108 16.0304 16.8536 14.9135ZM18.1536 15.6618C17.7028 16.4451 17.488 17.6027 17.488 19C17.488 20.3973 17.7028 21.5549 18.1536 22.3382C18.5713 23.0637 19.2029 23.5 20.238 23.5C21.2731 23.5 21.9047 23.0637 22.3223 22.3382C22.7731 21.5549 22.9879 20.3973 22.9879 19C22.9879 17.6027 22.7731 16.4451 22.3223 15.6618C21.9047 14.9363 21.2731 14.5 20.238 14.5C19.2029 14.5 18.5713 14.9363 18.1536 15.6618Z" fill="#212121"/>
</svg>

<svg viewBox="0 0 28 28" fill="none" xmlns="http://www.w3.org/2000/svg" height="1em" width="1em">
  <path d="M25.25 2.5a.75.75 0 0 1 .75.75v6.5a.75.75 0 0 1-.75.75h-6.5a.75.75 0 0 1 0-1.5h4.66c-1.68-2.531-5.066-4.5-9.16-4.5-4.217 0-7.542 1.998-9.867 5.653a.75.75 0 1 1-1.266-.806C5.69 5.307 9.467 3 14.25 3c4.433 0 8.226 2.073 10.25 4.937V3.25a.75.75 0 0 1 .75-.75ZM9.75 18.25c2.098 0 2.812-1.102 2.812-1.875 0-.773-.713-1.875-2.812-1.875-.904 0-1.584.277-2.037.55a3.396 3.396 0 0 0-.622.478.885.885 0 0 0-.023.024l.002-.002-.003.003.001-.001-.001.002a.75.75 0 0 1-1.138-.978l.002-.002.027-.03a3.689 3.689 0 0 1 .252-.246 4.9 4.9 0 0 1 .73-.535A5.412 5.412 0 0 1 9.75 13c2.651 0 4.312 1.523 4.312 3.375 0 1.056-.54 2.004-1.494 2.625.955.62 1.494 1.57 1.494 2.625 0 1.852-1.66 3.375-4.312 3.375a5.412 5.412 0 0 1-2.81-.763 4.9 4.9 0 0 1-.73-.534 3.689 3.689 0 0 1-.252-.247l-.018-.02-.006-.006-.002-.003-.001-.001-.001-.001a14.158 14.158 0 0 1-.001-.002.75.75 0 0 1 1.138-.977l.001.002.002.002-.002-.002.023.024c.023.023.061.062.116.11.109.097.278.232.506.369a3.912 3.912 0 0 0 2.037.549c2.098 0 2.812-1.102 2.812-1.875 0-.773-.713-1.875-2.812-1.875a.75.75 0 0 1 0-1.5Zm7.104-3.336C17.53 13.739 18.648 13 20.238 13c1.59 0 2.708.739 3.384 1.914.643 1.116.866 2.584.866 4.086 0 1.502-.223 2.97-.866 4.087C22.946 24.26 21.828 25 20.238 25c-1.59 0-2.708-.739-3.384-1.913-.643-1.117-.866-2.585-.866-4.087 0-1.502.223-2.97.866-4.086Zm1.3.748c-.451.783-.666 1.94-.666 3.338 0 1.397.215 2.555.666 3.338.417.726 1.049 1.162 2.084 1.162 1.035 0 1.667-.436 2.084-1.162.451-.783.666-1.94.666-3.338 0-1.397-.215-2.555-.666-3.338-.417-.726-1.049-1.162-2.084-1.162-1.035 0-1.667.436-2.084 1.162Z" fill="#212121"/>
</svg>
